!!!!SEGMENT: pl-kk--kk-i-10--008-006_pekiel-bartlomiej--missa-agnus-dei.krn
!!!cenid: 16xx:1200
!!!COM: Pękiel, Bartłomiej
!!!COM-rismid: pe30105642
!!!CDT: <1633-~1670
!!!CNT: Polish
!!!OPR: Missa
!!!OTL: Agnus Dei
!!!OMV: 006
!!!PDT:
!!!AGN: Sacred; Mass
!!!SMS-siglum: PL-Kk
!!!SMS-shelfmark: Kk.I.10
!!!SMS-shelfwork: 008-006 M
!!!SMS-variant:
!!!SMS-altvar:
!!!NIFC-rismid: 1001153818
!!!URL-scan: http://repozytorium.nifc.pl/skany/pl-kk-nut--i-10
!!!ONB-nifc: UWAGA: części Mszy: 1. Kyrie, 2. Et in terra, 3. Patrem, 4. Sanctus, 5. Benedictus, 6. Agnus Dei. T1 (0015-0019), T2 (0065-0069), B (0114-0118).
!!!AIN: 1 bass 1 empty 1 tenor
!!!key:
**kern	**text	**kern	**text	**kern	**text
*part3	*part3	*part2	*part2	*part1	*part1
*staff3	*staff3	*staff2	*staff2	*staff1	*staff1
*Ibass	*	*Itenor	*	*Iempty	*
*I"Bassus.	*	*I"2do Tenore	*	*I"Primus	*
*I'B	*	*I'T 2	*	*I'T 1	*
*clefF4	*	*clefC4	*	*clefC4	*
*k[]	*	*k[]	*	*k[]	*
*G:	*	*G:	*	*G:	*
*M2/1	*	*M2/1	*	*M2/1	*
*met(c|)	*	*met(c|)	*	*	*
=1-	=1-	=1-	=1-	=1-	=1-
*2\right	*	*2\right	*	*2\right	*
*	*	*	*	*met(c)	*
2r	.	2.d\	A-	0r	.
2.G\	A-	.	.	.	.
.	.	4d\	-gnus	.	.
.	.	2e\	De-	.	.
4G\	-gnus	.	.	.	.
2A\	De-	4c\	-i	.	.
.	.	4A/	qui	.	.
=2-	=2-	=2-	=2-	=2-	=2-
*	*	*	*	*2\right	*
4F#X\	-i	2d\	tol-	2.d\	A-
4D\	qui	.	.	.	.
2G\	tol-	4B\	-lis	.	.
.	.	4G/	pec-	4d\	-gnus
4E\	-lis	2c\	-ca-	2e\	De-
4C/	pec-	.	.	.	.
2F#\	-ca-	4A\	-ta	4c\	-i
.	.	4A\	pec-	4A/	qui
=3-	=3-	=3-	=3-	=3-	=3-
4D,</	-ta	4.B\	-ca-	2d\	tol-
4D/	pec-	.	.	.	.
.	.	8A\	.	.	.
4.E\	.	8G/L	.	4B\	-lis
.	.	8A/	.	.	.
.	.	8B/	.	4G/	pec-
8D/	.	8G/J	.	.	.
4C/	-[ca]-	4A\	.	4c\	-ca-
4BB/	-ta	4B\	-ta	4d\	-ta
2AA/	mun-	2c\	mun-	4e\	mun-
.	.	.	.	8d\L	.
.	.	.	.	8c\J	.
=4-	=4-	=4-	=4-	=4-	=4-
4GG/	-di	2B\	-di	1d	-di
4GG/	pec-	.	.	.	.
!LO:LB:g=original	!	!	!	!	!
8GG/L	-ca-	2B\	pec-	.	.
8AA/	.	.	.	.	.
8BB/	.	.	.	.	.
8C/J	.	.	.	.	.
8D\L	.	8A/L	-ca-	1r	.
8E\	.	8G/	.	.	.
8Fny\	.	8A/	.	.	.
8G\J	.	8B/J	.	.	.
!	!	!LO:LB:g=original	!	!	!
8A\	.	4.c\	.	.	.
8E\	-ta	.	.	.	.
2A\	mun-	.	.	.	.
.	.	8c\	-ta	.	.
=5-	=5-	=5-	=5-	=5-	=5-
.	.	2B\	mun-	4E/	pec-
!LO:TX:a:t=P:problem=# above	!	!	!	!	!
4G#X\	.	.	.	4.e\	-ca-
2A\	-di	4c\	-di	.	.
.	.	.	.	8d\L	.
.	.	4A\	pec-	8c\	.
.	.	.	.	8B\J	.
!	!	!	!	!LO:LB:g=original	!
4AA/	pec-	8e\L	-ca-	2c\	.
.	.	8d\	.	.	.
4.A\	-ca-	8c\	.	.	.
.	.	8B\J	.	.	.
.	.	4.A\	.	4c\	-ta
8G#\L	.	.	.	.	.
8F\	.	.	.	4c\	pec-
8E\J	.	16B\LL	.	.	.
.	.	16c\JJ	.	.	.
=6-	=6-	=6-	=6-	=6-	=6-
2D/	.	2d\	.	8f\L	-ca-
.	.	.	.	8e\	.
.	.	.	.	8d\	.
.	.	.	.	8c\J	.
4.Gny\	.	2d\	-ta	4B\	.
.	.	.	.	8B\	-ta
*	*	*	*	*	*ij
8F\	.	.	.	8A/	pec-
8E/L	.	4r	.	8G/L	-ca-
8D/	.	.	.	16A/L	.
.	.	.	.	16B/JJ	.
8C/	.	4G/	pec-	2c\	.
8BB/J	.	.	.	.	.
2.C/	.	8C/L	-ca-	.	.
.	.	8D/	.	.	.
.	.	8E/	.	8G/	-ta
.	.	8F/J	.	8G/	pec-
=7-	=7-	=7-	=7-	=7-	=7-
.	.	8G/	.	4E/	-ca-
.	.	8D/	-ta	.	.
4BB/	-ta	2G/	mun-	4B\	-ta
*	*	*	*	*	*Xij
2AA/	mun-	.	.	4E/	mun-
!	!	!LO:TX:b:t=P:problem=# below	!	!	!
.	.	4F#X/	.	4A/	.
2GG/	-di	2G,</	-di	4D/	di
.	.	.	.	2d\	mi-
!LO:LB:g=original	!	!	!	!	!
2.G\	mi-	2.B\	mi-	.	.
.	.	.	.	4d\	-ſe-
=8-	=8-	=8-	=8-	=8-	=8-
.	.	.	.	2e\	-re-
4G\	-ſe-	4B\	-ſe-	.	.
2A\	-re-	2c\	-re-	2c\	-re
2F#X\	-re	2A\	-re	4.d\	no-
.	.	.	.	8c\L	.
2G\	mi-	4.B\	no-	8B\	.
.	.	.	.	8A\J	.
!	!	!	!	!LO:LB:g=original	!
.	.	.	.	4.G/	.
.	.	16c\LL	.	.	.
*	*	*custos:e	*	*	*
.	.	16d\JJ	.	.	.
!	!	!LO:LB:g=original	!	!	!
=9-	=9-	=9-	=9-	=9-	=9-
2E\	-ſe-	4.e\	.	.	.
.	.	.	.	16A\LL	.
.	.	.	.	16B\JJ	.
.	.	.	.	4.c\	.
.	.	4d\	.	.	.
4.Fny\	-re-	.	.	.	.
.	.	8c\L	.	8B\	.
.	.	16d\L	.	8A\L	bis
.	.	16e\JJ	.	.	.
8E\	.	4.f\	.	16B\L	.
.	.	.	.	16c\JJ	.
*	*	*	*	*	*ij
8D\L	.	.	.	4d\	mi-
8E\	.	.	.	.	.
8F\	.	8e\	.	4.A/	-ſe-
8D\J	.	8d\L	.	.	.
4A\	.	16c\L	.	.	.
.	.	16B\JJ	.	.	.
!	!	!LO:N:vis=2.	!	!	!
.	.	[y<4.c\	.	8B\	-re-
8AA/L	.	.	.	8c\L	-re
8BB/J	.	.	.	16B\L	.
.	.	.	.	16A\JJ	.
=10-	=10-	=10-	=10-	=10-	=10-
8C/L	.	4c\]yy	.	[<4.G/	no-
8D/	.	.	.	.	.
8E/J	.	4B\	.	.	.
8D/	-re	.	.	8G/]	.
4C/	no-	4e\	.	2A/	.
4D/	.	4d\	.	.	.
1GG	-bis	1d	-bis	1D 1B	-bis
*	*	*	*	*	*Xij
=11-	=11-	=11-	=11-	=11-	=11-
*M3/1	*	*M3/1	*	*M3/1	*
!	!	!	!	!LO:TX:b:t=6	!
00.r	.	0d	A-	00.r	.
.	.	1d	-gnus	.	.
=12-	=12-	=12-	=12-	=12-	=12-
.	.	1e	De-	.	.
.	.	1d	-i	.	.
.	.	1c	qui	.	.
=13-	=13-	=13-	=13-	=13-	=13-
0G	A-	1d	tol-	00.r	.
.	.	1c	-lis	.	.
1G	-gnus	1B	pec-	.	.
=14-	=14-	=14-	=14-	=14-	=14-
1A	De-	1c	-ca-	.	.
1G	-i	1B	-ta	.	.
1F	qui	1A	pec-	.	.
!LO:LB:g=original	!	!LO:LB:g=original	!	!	!
=15-	=15-	=15-	=15-	=15-	=15-
1G	tol-	0B	-ca-	00.r	.
1F	-lis	.	.	.	.
1E	pec-	1c	-ta	.	.
=16-	=16-	=16-	=16-	=16-	=16-
*	*	*col	*	*	*
1F	-ca-	1A	mun-	.	.
1E	-ta	0B	.	.	.
1D	pec-	.	.	.	.
=17-	=17-	=17-	=17-	=17-	=17-
*lig	*	*	*	*	*
1C	-ca-	0.c	-di	0G	A-
1D	.	.	.	.	.
*Xlig	*	*	*	*	*
1E	.	.	.	1G	-gnus
=18-	=18-	=18-	=18-	=18-	=18-
*lig	*	*	*	*	*
1F	.	1A	pec-	1A	De-
1E	.	0B	-ca-	1G	-i
1D	.	.	.	1F	qui
*Xlig	*	*Xcol	*	*	*
!	!	!	!	!LO:LB:g=original	!
=19-	=19-	=19-	=19-	=19-	=19-
1C	.	1c	-ta	1E	tol-
0BB	.	1r	.	1F#X	-lis
!	!	!	!	!LO:TX:a:t=P:problem=# above	!
.	.	1r	.	1G#X	pec-
=20-	=20-	=20-	=20-	=20-	=20-
0AA	.	1%3r	.	1A	-ca-
.	.	.	.	1B	-ta
1E	-ta	.	.	0c	mun-
=21-	=21-	=21-	=21-	=21-	=21-
0.G	mun-	0d	A-	.	.
.	.	.	.	2B\	.
.	.	.	.	2A/	.
.	.	1d	-gnus	1B	.
=22-	=22-	=22-	=22-	=22-	=22-
*	*	*	*	*lig	*
0.C	-di	1e	De-	1c	-di
.	.	1d	-i	1B,<	.
*	*	*	*	*Xlig	*
.	.	1c	qui	1A	pec-
=23-	=23-	=23-	=23-	=23-	=23-
*	*	*	*	*lig	*
00.r	.	1B	tol-	1Gny	-ca-
.	.	1c	lis	1A	.
*	*	*	*	*Xlig	*
.	.	1d	pec-	1B-X	-ta
=24-	=24-	=24-	=24-	=24-	=24-
*	*	*	*	*lig	*
.	.	0d	-ca-	1Fny	mun-
.	.	.	.	1G	.
*	*	*	*	*Xlig	*
!	!	!LO:TX:a:t=P:problem=# above	!	!	!
.	.	1c#X	-ta	1A	.
=25-	=25-	=25-	=25-	=25-	=25-
0D	A-	(>1.d	mun-	1A	-di
!	!	!	!	!LO:TX:t=P:problem=fragment nieczytelny ze względu na defekt źródła	!
.	.	.	.	0ryy	.
.	.	2cny\)	.	.	.
1D	-gnus	(>2B\	-di	.	.
.	.	2A\)	.	.	.
!LO:LB:g=original	!	!LO:LB:g=original	!	!LO:LB:g=original	!
=26-	=26-	=26-	=26-	=26-	=26-
1E	De-	1G	pec-	1%3r	.
1D	-i	0A	-ca-	.	.
1C	qui	.	.	.	.
=27-	=27-	=27-	=27-	=27-	=27-
1D	tol-	1A	-ta	0d	A-
*	*	*lig	*	*	*
1C	-lis	1A	mun-	.	.
1BB	pec-	1B	.	1d	-gnus
*	*	*Xlig	*	*	*
=28-	=28-	=28-	=28-	=28-	=28-
0.C	-ca-	0.G	-di	1e	De-
.	.	.	.	1d	-i
.	.	.	.	1c	qui
=29-	=29-	=29-	=29-	=29-	=29-
0GG	-ta	0d	A-	1Bny	tol-
.	.	.	.	1A	-lis
1G	qui	1d	-gnus	1B	pec-
=30-	=30-	=30-	=30-	=30-	=30-
*	*	*	*	*lig	*
1c	tol-	1e	De-	1c	-ca-
1B	-lis	1d	-i	1G	.
*	*	*	*	*Xlig	*
1A	pec-	1c	qui	1A	-ta
=31-	=31-	=31-	=31-	=31-	=31-
1G	-ca-	1B	tol-	0d	mun-
1F	-ta	1A	-lis	.	.
!	!	!	!	!LO:TX:b:t=P:problem=# below	!
1E	pec-	1G	pec-	1c#X	.
=32-	=32-	=32-	=32-	=32-	=32-
*lig	*	*	*	*	*
1D	-ca-	0A	-ca-	0.d	-di
1C	.	.	.	.	.
*Xlig	*	*	*	*	*
1BB-X	.	1B-X	-ta	.	.
=33-	=33-	=33-	=33-	=33-	=33-
1FF	-ta	0.A	mun-	0d	mi-
0AA	mun-	.	.	.	.
!	!	!	!	!LO:TX:b:t=P:problem=# below	!
.	.	.	.	1c#X	-ſe-
!LO:LB:g=original	!	!	!	!	!
=34-	=34-	=34-	=34-	=34-	=34-
1D,<	-di	1A	-di	1.d	-re-
1.D	mi-	1r	.	.	.
.	.	.	.	2c\ny	.
*	*	*custos:B	*	*	*
.	.	1d	mi-	2B\	.
!	!	!	!	!LO:TX:t=P:problem=fragment nieczytelny ze względu na defekt źródła	!
2D\	-ſe-	.	.	2ryy	.
!	!	!LO:LB:g=original	!	!LO:LB:g=original	!
=35-	=35-	=35-	=35-	=35-	=35-
0E	-re-	1Bny	-ſe-	2G/	.
.	.	.	.	2A/	.
*	*	*	*	*lig	*
.	.	1.G	-re-	1B	.
1C	-re	.	.	1c	.
.	.	2A\	.	.	.
*	*	*	*	*Xlig	*
=36-	=36-	=36-	=36-	=36-	=36-
1BBny	no-	1.B	.	1d	-re
*	*	*	*	*	*ij
2GG/	.	.	.	1.d	mi-
2AA/	.	2A\	.	.	.
2BB/	.	1G	.	.	.
2GG/	.	.	.	2d\	-se-
=37-	=37-	=37-	=37-	=37-	=37-
0C	.	(>1G	.	0e	-re-
.	.	1A)	.	.	.
1BB	.	1B	-re	1d	-re
*	*	*	*	*	*Xij
=38-	=38-	=38-	=38-	=38-	=38-
*	*	*col	*	*	*
!	!	!	!	!LO:N:vis=0	!
(>0.AA	.	1E	no-	0.c	no-
.	.	0A	.	.	.
*	*	*Xcol	*	*	*
=39-	=39-	=39-	=39-	=39-	=39-
*M2/1	*	*M2/1	*	*M2/1	*
*	*	*met(c|)	*	*	*
!LO:TX:t=P:problem=kreska pseudotaktowa	!	!	!	!LO:TX:t=P:problem=podwójna kreska pseudotaktowa	!
1GG)	-bis	1D	-bis	1B;;	-bis
=-	=-	=-	=-	=||-	=||-
1.GG	A-	2r	.	1.B	A-
.	.	1G/	A-	.	.
=40-	=40-	=40-	=40-	=40-	=40-
.	.	.	.	.	.
2GG/	-gnus	2G/	-gnus	2B\	-gnus
1C	De-	1G	De-	1c	De-
=41-	=41-	=41-	=41-	=41-	=41-
2C/	-i	2G/	-i	2c\	-i
2BB/	qui	2G/	qui	4d\	qui
.	.	.	.	2d\	tol-
1C	tol-	1G	tol-	.	.
.	.	.	.	8c\L	.
.	.	.	.	8B\J	.
!	!	!	!	!LO:PB:g=original	!
.	.	.	.	2c\	.
!LO:LB:g=original	!	!	!	!	!
=42-	=42-	=42-	=42-	=42-	=42-
*	*	*custos:d	*	*	*
1GG	-lis	2G/	-lis	1B	-lis
!	!	!LO:PB:g=original	!	!	!
.	.	1d	pec-	.	.
1G	pec-	.	.	1B	pec-
.	.	2.e\	-ca-	.	.
=43-	=43-	=43-	=43-	=43-	=43-
2.A\	-ca-	.	.	4c\	-ca-
.	.	4d\	.	4d\	-ta
.	.	4c\	.	2.e\	mun-
4G\	.	4B\	-ta	.	.
1F	.	1A	mun-	.	.
.	.	.	.	8d\L	.
.	.	.	.	8c\J	.
.	.	.	.	2d\	.
=44-	=44-	=44-	=44-	=44-	=44-
2E\	-ta	2B\	-di	2e\	di
(<4C/	pec-	2c\	pec-	2e\	pec-
4D/)	.	.	.	.	.
(<4E/	-ca-	2G/	-ca-	2c\	-ca-
4C/)	.	.	.	.	.
4.G\	.	2B\	-ta	2d\	-ta
8G\	-ta	.	.	.	.
=45-	=45-	=45-	=45-	=45-	=45-
0D	mun-	2A/	mun-	2.d\	mun-
.	.	4B\	.	.	.
.	.	4c\	.	8c\L	.
.	.	.	.	8B\J	.
.	.	2d\	.	1A	.
.	.	2D/	.	.	.
=46-	=46-	=46-	=46-	=46-	=46-
1GG	-di	2D/	-di	2B\	-di
.	.	4r	.	4.B\	Do-
.	.	8G/	Do-	.	.
.	.	8G/	-na	8B\	-na
1rD	.	2.c\	no-	2.e\	Do-
*	*	*	*	*custos:c	*
.	.	4B\	-bis	4d\	-na
!	!	!	!	!LO:LB:g=original	!
=47-	=47-	=47-	=47-	=47-	=47-
2r	.	(<4A/	pa-	4c\	no-
*	*	*custos:D	*	*	*
.	.	4G/)	.	4B\	-bis
!	!	!LO:LB:g=original	!	!	!
4.D/	Do-	4D/	-cem	2A/	pa-
.	.	4.d\	pa-	.	.
8D/	-na	.	.	.	.
2.G\	no-	.	.	2B\	-cem
.	.	8c\L	.	.	.
.	.	8B\	.	.	.
.	.	8A\J	.	.	.
.	.	4B\	.	2r	.
4F\	.	8A\L	.	.	.
.	.	8B\J	.	.	.
=48-	=48-	=48-	=48-	=48-	=48-
4E\	.	4c#X\	.	1rB	.
4D\	-bis	2d\	.	.	.
2A\	pa-	.	.	.	.
.	.	4c#\	.	.	.
2D/	-cem	4d\	-cem	2rG	.
.	.	8.D/	Do-	.	.
.	.	16D/	-na	.	.
2r	.	4.d\	no-	4D/	Do-
.	.	.	.	4D/	-na
.	.	8c#\	-bis	.	.
!LO:PB:g=original	!	!	!	!	!
=49-	=49-	=49-	=49-	=49-	=49-
1r	.	4B\	pa-	4d\	no-
.	.	4A/	.	4c\	-bis
.	.	2.E/	-cem	4B\	pa-
.	.	.	.	4c\	.
*	*ij	*	*ij	*	*
4.E\	Do-	.	.	2B\	.
.	.	4.e\	Do-	.	.
8E\	-na	.	.	.	.
2.A\	no-	.	.	2A,</	-cem
.	.	8d\L	-na	.	.
.	.	8cny\	.	.	.
.	.	8B\J	.	.	.
=50-	=50-	=50-	=50-	=50-	=50-
*	*	*	*	*	*ij
.	.	4c\	no-	4.e\	Do-
4G\	.	4B\	-bis	.	.
.	.	.	.	8e\	-na
4F\	.	8A\L	pa-	4f\	no-
.	.	8B\J	.	.	.
4E\	-bis	2c\	.	4c\	-bis
2G\	pa	.	.	2d\	pa-
.	.	4B\	.	.	.
!	!	!LO:LB:g=original	!	!	!
2C/	-cem	2c\	cem	2e\	-cem
=51-	=51-	=51-	=51-	=51-	=51-
2.F\	Do-	0r	.	4r	.
.	.	.	.	8.c\	Do-
.	.	.	.	16c\	-na
*	*	*	*	*custos:e	*
.	.	.	.	2f\	no-
4E\	-na	.	.	.	.
!	!	!	!	!LO:LB:g=original	!
4D\	no-	.	.	2e\	-bis
!LO:TX:b:t=P:problem=# below	!	!	!	!	!
4C#X/	.	.	.	.	.
8D\L	-bis	.	.	2d\	pa-
8E\	.	.	.	.	.
8F\	.	.	.	.	.
8G\J	.	.	.	.	.
*	*	*	*Xij	*	*
=52-	=52-	=52-	=52-	=52-	=52-
!	!	!	!	!LO:TX:a:t=P:problem=# above	!
2A\	-pa-	2r	.	4c#X\	.
.	.	.	.	2d\	-cem
*	*	*	*	*	*Xij
2D/	-cem	4.A/	Do-	.	.
.	.	.	.	4D/	Do-
.	.	8A/	-na	.	.
1r	.	4.d\	do-	4D/	-na
.	.	.	.	4d\	no-
.	.	8c\	-na	.	.
.	.	4B\	no-	4c#\	-bis
.	.	4A\	-bis	(>2B\	pa-
=53-	=53-	=53-	=53-	=53-	=53-
2r	.	8G\L	pa-	.	.
.	.	8A\	.	.	.
.	.	8B\	.	2A/)	.
.	.	8c\J	.	.	.
4.D/	Do-	2d\	.	.	.
.	.	.	.	4B,<\	-cem
8D/	-na	.	.	.	.
*	*	*	*	*	*ij
4.G\	no-	2.d\	-cem	8B\	Do-
.	.	.	.	8A/	-na
.	.	.	.	4G/	no-
8F\	.	.	.	.	.
4E\	.	.	.	8A/L	.
.	.	.	.	8B/J	.
!	!	!	!	!LO:TX:a:t=P:problem=# above	!
4D\	.	2r	.	8c#X\	.
.	.	.	.	8A/	-bis
!LO:LB:g=original	!	!	!	!	!
=54-	=54-	=54-	=54-	=54-	=54-
4A\	.	.	.	2d\	pa-
4B-X\	-bis	4r	.	.	.
*	*	*	*ij	*	*
!	!	!	!	!LO:TX:a:t=P:problem=# above	!
2A\	pa-	8.A/	Do-	4c#X\	.
.	.	16A/	-na	.	.
.	.	4.d\	no-	2.d\	-cem
2D/	-cem	.	.	.	.
*	*Xij	*	*	*	*
.	.	8c\	-bis	.	.
.	.	4.B\	pa-	.	.
4.G\	Do-	.	.	2r	.
.	.	8B\	-cem	.	.
*	*	*	*Xij	*	*
.	.	4d\	no-	.	.
*	*	*	*	*custos:B	*
8G\	-na	.	.	.	.
!	!	!	!	!LO:LB:g=original	!
=55-	=55-	=55-	=55-	=55-	=55-
4F#X\	no-	4c\	-bis	8B\	Do-
.	.	.	.	8E/	-na
!	!	!LO:LB:g=original	!	!	!
4A\	-bis	2B\	pa-	4.e\	no-
2E\	pa-	.	.	.	.
.	.	.	.	8d\	.
!	!	!	!	!LO:TX:a:t=P:problem=# above	!
.	.	2A/	-cem	4c#X\	.
2AA/	-cem	.	.	2d\	-bis
*	*	*	*ij	*	*
.	.	4.d\	Do-	.	.
2rBB	.	.	.	2.e\	pa-
.	.	8d\	-na	.	.
.	.	4c#X\	no-	.	.
=56-	=56-	=56-	=56-	=56-	=56-
2r	.	4e\	-bis	.	.
!	!	!	!	!LO:TX:a:t=P:problem=# above	!
.	.	2B\	pa-	4d#X\	-cem
4r	.	.	.	2e\	Do-
*	*ij	*	*	*	*
8.BB/	Do-	2B\	-cem	.	.
16BB/	-na	.	.	.	.
4.E\	no-	.	.	4E/	-na
.	.	4c#\	do-	4G/	no-
8D/	.	.	.	.	.
4Cny/	.	4d\	-na	8A/	.
.	.	.	.	8G/	.
4BB/	-bis	4.c#\	no-	2G/	-bis
=57-	=57-	=57-	=57-	=57-	=57-
2C/	pa-	.	.	.	.
.	.	8B\	-bis	.	.
!	!	!	!	!LO:TX:b:t=P:problem=# below	!
.	.	2A/	pa-	4F#X/	pa-
2D/	.	.	.	4G/	-cem
.	.	4B\	-cem	2ryy	.
*	*	*	*Xij	*	*Xij
4GG/	.	4r	.	.	.
!LO:N:vis=0	!	!LO:N:vis=2	!	!	!
[y2.GG/;<	-cem	[y2.r	.	2ryy	.
*	*Xij	*	*	*	*
.	.	.	.	.	.
.	.	.	.	4ryy	.
=58-	=58-	=58-	=58-	=58-	=58-
0GG/]yy	.	0r]yy	.	0ryy	.
!	!	!LO:TX:a:t=P:problem=ta adnotacja zapisana na pięciolinii, za ostatnim taktem	!	!	!
!	!	!LO:TX:a:i:t=Pro Dominica\nPalma<.> F. L. a 4	!	!	!
!LO:TX:t=P:problem=kreska pseudotaktowa	!	!LO:TX:t=P:problem=kreska pseudotaktowa	!	!LO:TX:t=P:problem=kreska pseudotaktowa	!
=-	=-	=-	=-	=-	=-
*-	*-	*-	*-	*-	*-
!!!system-decoration: [(s1,s2,s3)]
!!!RDF**kern: > = above
!!!RDF**kern: < = below
!!!EED: Antoni Szymański
!!!EST: 2021-07-06
!!!ENC: Tomasz Grochalski
!!!END: 2021-06-24
